svg/heart-twotone.svg

<svg xmlns="http://www.w3.org/2000/svg" width="24" height="24" viewBox="0 0 24 24">
	<path d="M12 20L20.5 11V7L17 5.5L12 7L7 5.5L3.5 7V11L12 20Z" fill="currentColor" fill-opacity="0">
		<animate attributeName="fill-opacity" values="0;0.3" begin="0.5s" dur="0.15s" fill="freeze" />
	</path>
	<path d="M12 8C12 8 12 8 12.7578 7C13.6343 5.84335 14.9398 5 16.5 5C18.9853 5 21 7.01472 21 9.5C21 10.4251 20.7209 11.285 20.2422 12C19.435 13.206 12 21 12 21M12 8C12 8 12 8 11.2422 7C10.3657 5.84335 9.06021 5 7.5 5C5.01472 5 3 7.01472 3 9.5C3 10.4251 3.27914 11.285 3.75777 12C4.56504 13.206 12 21 12 21" fill="none" stroke="currentColor" stroke-width="2" stroke-linecap="round" stroke-dasharray="30" stroke-dashoffset="30">
		<animate attributeName="stroke-dashoffset" values="30;0" dur="0.5s" fill="freeze" />
	</path>
</svg>

<svg xmlns="http://www.w3.org/2000/svg" width="24" height="24" viewBox="0 0 24 24">
	<g fill="currentColor">
		<path d="M12 8c0 0 0 0 0.76 -1c0.88 -1.16 2.18 -2 3.74 -2c2.49 0 4.5 2.01 4.5 4.5c0 0.93 -0.28 1.79 -0.76 2.5c-0.81 1.21 -8.24 9 -8.24 9c0 0 -7.43 -7.79 -8.24 -9c-0.48 -0.71 -0.76 -1.57 -0.76 -2.5c0 -2.49 2.01 -4.5 4.5 -4.5c1.56 0 2.87 0.84 3.74 2c0.76 1 0.76 1 0.76 1Z" fill-opacity="0">
			<animate attributeName="fill-opacity" values="0;0.3" begin="0.7s" dur="0.15s" fill="freeze" />
		</path>
	</g>
	<g fill="none" stroke="currentColor" stroke-width="2" stroke-linecap="round" stroke-linejoin="round">
		<path d="M12 8c0 0 0 0 -0.76 -1c-0.88 -1.16 -2.18 -2 -3.74 -2c-2.49 0 -4.5 2.01 -4.5 4.5c0 0.93 0.28 1.79 0.76 2.5c0.81 1.21 8.24 9 8.24 9M12 8c0 0 0 0 0.76 -1c0.88 -1.16 2.18 -2 3.74 -2c2.49 0 4.5 2.01 4.5 4.5c0 0.93 -0.28 1.79 -0.76 2.5c-0.81 1.21 -8.24 9 -8.24 9" stroke-dasharray="32" stroke-dashoffset="32">
			<animate attributeName="stroke-dashoffset" values="32;0" dur="0.7s" fill="freeze" />
		</path>
	</g>
</svg>
